packages/heroicons/src/prism/calendar.svg

<!-- Generated by IcoMoon.io -->
<svg version="1.1" xmlns="http://www.w3.org/2000/svg" width="16" height="16" viewBox="0 0 16 16">
<title>calendar</title>
<path fill="#4a4a4a" d="M0 15c0 0.552 0.448 1 1 1h14c0.552 0 1-0.448 1-1v-9h-16v9zM11 7h4v2h-4v-2zM11 10h4v2h-4v-2zM11 13h4v2h-4v-2zM6 7h4v2h-4v-2zM6 10h4v2h-4v-2zM6 13h4v2h-4v-2zM1 7h4v2h-4v-2zM1 10h4v2h-4v-2zM1 13h4v2h-4v-2zM15 2h-2v-1.429c0-0.316-0.224-0.571-0.5-0.571s-0.5 0.256-0.5 0.571v1.429h-8v-1.429c0-0.316-0.224-0.571-0.5-0.571s-0.5 0.256-0.5 0.571v1.429h-2c-0.552 0-1 0.448-1 1v2h16v-2c0-0.552-0.448-1-1-1zM3.5 4.5c-0.552 0-1-0.448-1-1 0-0.37 0.201-0.693 0.5-0.866v0.866c0 0.276 0.224 0.5 0.5 0.5s0.5-0.224 0.5-0.5v-0.866c0.299 0.173 0.5 0.496 0.5 0.866 0 0.552-0.448 1-1 1zM12.5 4.5c-0.552 0-1-0.448-1-1 0-0.37 0.201-0.693 0.5-0.866v0.866c0 0.276 0.224 0.5 0.5 0.5s0.5-0.224 0.5-0.5v-0.866c0.299 0.173 0.5 0.496 0.5 0.866 0 0.552-0.448 1-1 1z"></path>
</svg>

<svg xmlns="http://www.w3.org/2000/svg" aria-hidden="true" fill="currentColor" viewBox="0 0 16 16">
  <path d="M0 15a1 1 0 001 1h14a1 1 0 001-1V6H0v9zm11-8h4v2h-4V7zm0 3h4v2h-4v-2zm0 3h4v2h-4v-2zM6 7h4v2H6V7zm0 3h4v2H6v-2zm0 3h4v2H6v-2zM1 7h4v2H1V7zm0 3h4v2H1v-2zm0 3h4v2H1v-2zM15 2h-2V.571C13 .255 12.776 0 12.5 0s-.5.256-.5.571V2H4V.571C4 .255 3.776 0 3.5 0S3 .256 3 .571V2H1a1 1 0 00-1 1v2h16V3a1 1 0 00-1-1zM3.5 4.5A1 1 0 013 2.634V3.5a.5.5 0 001 0v-.866A1 1 0 013.5 4.5zm9 0a1 1 0 01-.5-1.866V3.5a.5.5 0 001 0v-.866a1 1 0 01-.5 1.866z"/>
</svg>
